X:497
T: Ehestandslehren (202), S. 439
N: T0385
O: Luxemburg
S: Singendes Volk, Esch-Alzette, 1937 posth.]
N: Esch-Alzette, hhh Peter Weis;
N: Straen, fff Witry, 1932, abweichender Text (8cht-zeilig)
R: Hochzeits-, Ehestandslied]
M: 3/4
L: 1/8
K: D
FE | D3FBA | A2G2
GF | E3FB,C | D2z2
(3ABc | d3ded | c2B2
AF | A3GEF | D2z2

@@@ Tune index: 8551
